packages/kaspersky-hexa-ui-icons/src/iconsSVGs/24/Shield.svg

<svg width="24" height="24" viewBox="0 0 24 24" fill="none" xmlns="http://www.w3.org/2000/svg">
<path fill-rule="evenodd" clip-rule="evenodd" d="M11.0997 2.3516C11.6774 2.05174 12.3648 2.05174 12.9425 2.3516L19.5029 5.75693C19.8342 5.92892 20.0422 6.27116 20.0422 6.64448V11.8148C20.0422 12.812 19.9295 13.8914 19.5121 14.9175C18.3866 17.6846 16.6035 19.4407 15.1016 20.5022C14.3517 21.0322 13.6698 21.3908 13.1694 21.6189C12.9189 21.7331 12.7129 21.815 12.5652 21.8697C12.4914 21.8971 12.432 21.9176 12.3888 21.9321C12.3673 21.9393 12.3497 21.9449 12.3364 21.9492L12.3197 21.9544L12.3138 21.9562L12.3115 21.9569L12.3105 21.9572C12.3105 21.9572 12.3096 21.9575 12.0211 21C11.7699 21.968 11.7689 21.9677 11.7689 21.9677L11.7678 21.9674L11.7653 21.9668L11.759 21.9651L11.7416 21.9603C11.7278 21.9565 11.7097 21.9514 11.6875 21.9449C11.6431 21.9318 11.5824 21.9131 11.507 21.8881C11.3562 21.8379 11.1465 21.7621 10.8919 21.6543C10.3833 21.4391 9.69148 21.0949 8.93197 20.5711C7.40804 19.5202 5.61429 17.7471 4.49525 14.8687C4.10685 13.8696 4 12.8253 4 11.8567V6.64448C4 6.27116 4.20795 5.92892 4.53929 5.75693L11.0997 2.3516ZM12.0211 21L11.7699 21.968C11.9473 22.014 12.1349 22.0101 12.3105 21.9572L12.0211 21ZM12.0031 19.9432C11.9119 19.9101 11.8001 19.867 11.6713 19.8125C11.2667 19.6412 10.6978 19.3594 10.0674 18.9246C8.81141 18.0585 7.30826 16.5848 6.35934 14.144C6.09439 13.4625 6 12.6911 6 11.8567V7.2521L12.0211 4.12671L18.0422 7.2521V11.8148C18.0422 12.6757 17.9422 13.4689 17.6595 14.1639C16.7076 16.5042 15.2084 17.9777 13.9473 18.869C13.3157 19.3154 12.7459 19.614 12.3399 19.799C12.209 19.8587 12.0956 19.9064 12.0031 19.9432Z" fill="black"/>
</svg>

<svg xmlns="http://www.w3.org/2000/svg" width="24" height="24" fill="none" viewBox="0 0 24 24"><path fill="#000" fill-rule="evenodd" d="M11.0997 2.3516a2 2 0 0 1 1.8428 0l6.5604 3.4053a1 1 0 0 1 .5393.8876v5.1703c0 .9972-.1127 2.0766-.5301 3.1027-1.1255 2.7671-2.9086 4.5232-4.4105 5.5847-.7499.53-1.4318.8886-1.9322 1.1167a9 9 0 0 1-.6042.2508 6 6 0 0 1-.1764.0624q-.0323.0107-.0524.0171l-.0167.0052-.0059.0018-.0023.0007-.001.0003s-.0009.0003-.2894-.9572c-.2512.968-.2522.9677-.2522.9677l-.0011-.0003-.0025-.0006-.0063-.0017-.0174-.0048-.0541-.0154a6 6 0 0 1-.1805-.0568 8.4 8.4 0 0 1-.6151-.2338c-.5086-.2152-1.2004-.5594-1.96-1.0832-1.5239-1.0509-3.3176-2.824-4.4366-5.7024C4.1068 13.8696 4 12.8253 4 11.8567V6.6445a1 1 0 0 1 .5393-.8876zM12.0211 21l-.2512.968c.1774.046.365.0421.5406-.0108zm-.018-1.0568a7 7 0 0 1-.3318-.1307c-.4046-.1713-.9735-.4531-1.6039-.8879-1.256-.8661-2.7591-2.3398-3.708-4.7806C6.0943 13.4625 6 12.6911 6 11.8567V7.2521l6.0211-3.1254 6.0211 3.1254v4.5627c0 .8609-.1 1.6541-.3827 2.3491-.9519 2.3403-2.4511 3.8138-3.7122 4.7051-.6316.4464-1.2014.745-1.6074.93a7.5 7.5 0 0 1-.3368.1442"/></svg>
